X:1
T:The Road to Knock
T:The Dunmore Lasses
C:trad. arr. Quilty
R:reel
H:transcribed by Henrik Norbeck
Z:id:Quilty-1
M:C|
K:Edor
D|:~E3F ~G3A|Be~e2 Be~e2|~E3F ~G2BG|~A2BA GBFB|
~E3F ~G3A|Be{a}ed ~e3f|1 ~g3e {a}fedB|~A2BA GAFG:|2 g2ge {a}fedB|~A2BA GAF2||
~g3e {a}fedc|Be~e2 Be~e2|~g3e {a}fedB|~A2BA GAFf|
gfeg fedc|Be{a}ed ~e3z|(3gab ge {a}fedB|~A2BA GAF||
